X: 2582
T: Ballyoran
R: polka
M: 2/4
K: Dmajor
|:A/|D2 FD/F/|AF/A/ d>F|AG GE|BA F/G/F/E/|
D2 FD/F/|AF/A/ d>F|AG GE|ED D3/2:|
|:F/|AG E/E/E/E/|BA FD/F/|AG E/E/E/E/|BA F/G/F/E/|
D2 FD/F/|AF/A/ d>F|AG GE|ED D3/2:|

